symbols/default/03d.svg

<svg width="100" height="100" viewBox="0 0 100 100" fill="none" xmlns="http://www.w3.org/2000/svg">
<g clip-path="url(#clip0_149_1385)">
<path fill-rule="evenodd" clip-rule="evenodd" d="M52.3146 18.5167L54.072 16.06L42.716 17.284L43.872 5.86L34.624 12.592L30 2.12L25.376 12.592L16.06 5.86L17.284 17.216L5.86 16.06L12.592 25.308L2.12 30L12.592 34.624L5.86 43.94L6.4302 43.8785C6.79888 43.4376 7.18901 43.011 7.6 42.6C11.1 39 15.7 36.9 20.7 36.6C23.4 32.7 27.9 30.4 32.8 30.4H33.9C38.2631 24.2593 44.9113 19.9465 52.3146 18.5167Z" fill="url(#paint0_radial_149_1385)"/>
<path fill-rule="evenodd" clip-rule="evenodd" d="M14.867 37.8308C16.7147 37.1384 18.6745 36.7215 20.7 36.6C23.4 32.7 27.9 30.4 32.8 30.4H33.9C36.6679 26.5044 40.3553 23.3445 44.5718 21.1896C39.7966 13.3271 29.5494 10.665 21.4904 15.2337C13.6195 19.7995 10.7654 29.8348 14.867 37.8308Z" fill="#FFD348"/>
<path fill-rule="evenodd" clip-rule="evenodd" d="M17.5653 37.034C18.5875 36.8096 19.6347 36.6639 20.7 36.6C23.4 32.7 27.9 30.4 32.8 30.4H33.9C36.1324 27.2581 38.9631 24.5947 42.187 22.5511C38.1607 15.989 29.5536 13.7405 22.8585 17.6236C16.0937 21.5472 13.7042 30.2499 17.5653 37.034Z" fill="url(#paint1_linear_149_1385)"/>
<path fill-rule="evenodd" clip-rule="evenodd" d="M81.3 42.9C79.4 31.6 69.4 23 57.7 23C48.6 23 40.4 28.1 36.4 36.1C35.2 35.6 34 35.4 32.8 35.4C28.6 35.4 25 37.9 23.6 41.6C23 41.5 22.5 41.5 21.9 41.5C17.8 41.5 14 43.1 11.2 46C8.5 48.8 7 52.4 7 56.2V56.4C7.1 60.5 8.7 64.2 11.6 66.9C14.3 69.6 18 71.1 21.9 71.1H77.6C85.5 71.1 92 64.7 92 56.8C92 50.2 87.5 44.5 81.3 42.9Z" fill="#DDDDDD"/>
<g opacity="0.6">
<path fill-rule="evenodd" clip-rule="evenodd" d="M81.3 42.9C79.4 31.6 69.4 23 57.7 23C48.6 23 40.4 28.1 36.4 36.1C35.2 35.6 34 35.4 32.8 35.4C28.6 35.4 25 37.9 23.6 41.6C23 41.5 22.5 41.5 21.9 41.5C17.8 41.5 14 43.1 11.2 46C8.5 48.8 7 52.4 7 56.2V56.4C7.1 60.5 8.7 64.2 11.6 66.9C14.3 69.6 18 71.1 21.9 71.1H77.6C85.5 71.1 92 64.7 92 56.8C92 50.2 87.5 44.5 81.3 42.9Z" fill="url(#paint2_linear_149_1385)" style="mix-blend-mode:multiply"/>
</g>
</g>
<defs>
<radialGradient id="paint0_radial_149_1385" cx="0" cy="0" r="1" gradientUnits="userSpaceOnUse" gradientTransform="translate(30 30) scale(27.88)">
<stop offset="0.5143" stop-color="#D6B849"/>
<stop offset="0.6523" stop-color="#FFCE47"/>
<stop offset="1" stop-color="#FFDB73"/>
</radialGradient>
<linearGradient id="paint1_linear_149_1385" x1="20.8172" y1="19.0572" x2="39.1767" y2="40.9373" gradientUnits="userSpaceOnUse">
<stop stop-color="#FFAF22"/>
<stop offset="0.9897" stop-color="#F09900"/>
</linearGradient>
<linearGradient id="paint2_linear_149_1385" x1="47.5" y1="38.5" x2="49.5" y2="71.1" gradientUnits="userSpaceOnUse">
<stop offset="0.484375" stop-color="white" stop-opacity="0"/>
<stop offset="1" stop-color="#B3B2B2"/>
</linearGradient>
<clipPath id="clip0_149_1385">
<rect width="100" height="100" fill="white"/>
</clipPath>
</defs>
</svg>

<svg xmlns="http://www.w3.org/2000/svg" fill="none" viewBox="0 0 100 100">
  <g clip-path="url(#a)">
    <path fill="url(#b)" fill-rule="evenodd" d="m52.315 18.517 1.757-2.457-11.356 1.224L43.872 5.86l-9.248 6.732L30 2.12l-4.624 10.472L16.06 5.86l1.224 11.356L5.86 16.06l6.732 9.248L2.12 30l10.472 4.624L5.86 43.94l.57-.061c.369-.441.759-.868 1.17-1.279 3.5-3.6 8.1-5.7 13.1-6 2.7-3.9 7.2-6.2 12.1-6.2h1.1c4.363-6.14 11.011-10.453 18.415-11.883Z" clip-rule="evenodd"/>
    <path fill="#FFD348" fill-rule="evenodd" d="M14.867 37.83A20.01 20.01 0 0 1 20.7 36.6c2.7-3.9 7.2-6.2 12.1-6.2h1.1a29.679 29.679 0 0 1 10.672-9.21c-4.775-7.863-15.023-10.525-23.082-5.956-7.87 4.565-10.725 14.6-6.623 22.597Z" clip-rule="evenodd"/>
    <path fill="url(#c)" fill-rule="evenodd" d="M17.565 37.034c1.022-.224 2.07-.37 3.135-.434 2.7-3.9 7.2-6.2 12.1-6.2h1.1a29.635 29.635 0 0 1 8.287-7.849c-4.026-6.562-12.633-8.81-19.328-4.927-6.765 3.923-9.155 12.626-5.294 19.41Z" clip-rule="evenodd"/>
    <path fill="#DDD" fill-rule="evenodd" d="M81.3 42.9C79.4 31.6 69.4 23 57.7 23c-9.1 0-17.3 5.1-21.3 13.1-1.2-.5-2.4-.7-3.6-.7-4.2 0-7.8 2.5-9.2 6.2-.6-.1-1.1-.1-1.7-.1-4.1 0-7.9 1.6-10.7 4.5C8.5 48.8 7 52.4 7 56.2v.2c.1 4.1 1.7 7.8 4.6 10.5 2.7 2.7 6.4 4.2 10.3 4.2h55.7c7.9 0 14.4-6.4 14.4-14.3 0-6.6-4.5-12.3-10.7-13.9Z" clip-rule="evenodd"/>
    <path fill="url(#d)" fill-rule="evenodd" d="M81.3 42.9C79.4 31.6 69.4 23 57.7 23c-9.1 0-17.3 5.1-21.3 13.1-1.2-.5-2.4-.7-3.6-.7-4.2 0-7.8 2.5-9.2 6.2-.6-.1-1.1-.1-1.7-.1-4.1 0-7.9 1.6-10.7 4.5C8.5 48.8 7 52.4 7 56.2v.2c.1 4.1 1.7 7.8 4.6 10.5 2.7 2.7 6.4 4.2 10.3 4.2h55.7c7.9 0 14.4-6.4 14.4-14.3 0-6.6-4.5-12.3-10.7-13.9Z" clip-rule="evenodd" opacity=".6" style="mix-blend-mode:multiply"/>
    <g filter="url(#e)" opacity=".3" style="mix-blend-mode:multiply">
      <path fill="#B6B6B6" d="M29.5 64c1.787 0 24.848-1.272 26.48-2 2.23-.994-2.39-6.972 0-7.47 1.08-.224 2.667-.927 2.667-.927s4.352-1.602 5.103-1.602c.75 0 .374-2.964.14-4.81l-.14-1.32c0-.87-2.592-2.674-3-4.87-.284-1.527.424-3.585.276-3.968 0 0-.05-.029-.036-.032.014-.004.026.007.036.032.112.053.922.327.922.327 1.948.66 5.03 1.74 7.802 3.64 1.658 1.138 3.941 3.314 3.941 3.314s1.645 1.272 2.059 1.687c1 1 4 4 6 4h5L89 51.59l.5 3.21c0 7.9-6.5 14.3-14.4 14.3H18.5S23 64 29.5 64Z"/>
    </g>
  </g>
  <defs>
    <linearGradient id="c" x1="20.817" x2="39.177" y1="19.057" y2="40.937" gradientUnits="userSpaceOnUse">
      <stop stop-color="#FFAF22"/>
      <stop offset=".99" stop-color="#F09900"/>
    </linearGradient>
    <linearGradient id="d" x1="47.5" x2="49.5" y1="38.5" y2="71.1" gradientUnits="userSpaceOnUse">
      <stop offset=".484" stop-color="#fff" stop-opacity="0"/>
      <stop offset="1" stop-color="#B3B2B2"/>
    </linearGradient>
    <radialGradient id="b" cx="0" cy="0" r="1" gradientTransform="translate(30 30) scale(27.88)" gradientUnits="userSpaceOnUse">
      <stop offset=".514" stop-color="#D6B849"/>
      <stop offset=".652" stop-color="#FFCE47"/>
      <stop offset="1" stop-color="#FFDB73"/>
    </radialGradient>
    <clipPath id="a">
      <path fill="#fff" d="M0 0h100v100H0z"/>
    </clipPath>
    <filter id="e" width="85" height="46.101" x="11.5" y="30" color-interpolation-filters="sRGB" filterUnits="userSpaceOnUse">
      <feFlood flood-opacity="0" result="BackgroundImageFix"/>
      <feBlend in="SourceGraphic" in2="BackgroundImageFix" result="shape"/>
      <feGaussianBlur result="effect1_foregroundBlur_149_1385" stdDeviation="3.5"/>
    </filter>
  </defs>
</svg>
